packages/ffe-icons/icons/filled/md/fit_screen.svg

<svg xmlns="http://www.w3.org/2000/svg" height="24" viewBox="0 -960 960 960" width="24"><path d="M800-629.999v-77.692q0-4.616-3.846-8.463-3.847-3.846-8.463-3.846h-77.692q-12.749 0-21.374-8.629Q680-737.257 680-750.013q0-12.755 8.625-21.37 8.625-8.616 21.374-8.616h77.692q30.308 0 51.308 21t21 51.308v77.692q0 12.749-8.629 21.374Q842.741-600 829.986-600q-12.756 0-21.371-8.625Q800-617.25 800-629.999Zm-699.999 0v-77.692q0-30.308 21-51.308t51.308-21h77.692q12.749 0 21.374 8.629Q280-762.741 280-749.986q0 12.756-8.625 21.371Q262.75-720 250.001-720h-77.692q-4.616 0-8.463 3.846-3.846 3.847-3.846 8.463v77.692q0 12.749-8.629 21.374Q142.743-600 129.987-600q-12.755 0-21.37-8.625-8.616-8.625-8.616-21.374Zm687.69 449.998h-77.692q-12.749 0-21.374-8.629Q680-197.259 680-210.014q0-12.756 8.625-21.371Q697.25-240 709.999-240h77.692q4.616 0 8.463-3.846 3.846-3.847 3.846-8.463v-77.692q0-12.749 8.629-21.374Q817.257-360 830.013-360q12.755 0 21.37 8.625 8.616 8.625 8.616 21.374v77.692q0 30.308-21 51.308t-51.308 21Zm-615.382 0q-30.308 0-51.308-21t-21-51.308v-77.692q0-12.749 8.629-21.374Q117.259-360 130.014-360q12.756 0 21.371 8.625Q160-342.75 160-330.001v77.692q0 4.616 3.846 8.463 3.847 3.846 8.463 3.846h77.692q12.749 0 21.374 8.629Q280-222.743 280-209.987q0 12.755-8.625 21.37-8.625 8.616-21.374 8.616h-77.692Zm84.615-229.23v-141.538q0-29.826 21.241-51.066 21.24-21.241 51.066-21.241h301.538q29.826 0 51.066 21.241 21.241 21.24 21.241 51.066v141.538q0 29.826-21.241 51.066-21.24 21.241-51.066 21.241H329.231q-29.826 0-51.066-21.241-21.241-21.24-21.241-51.066Z"/></svg>

<svg xmlns="http://www.w3.org/2000/svg" height="24" viewBox="0 -960 960 960" width="24"><path d="M800-630v-77.69q0-4.62-3.85-8.46-3.84-3.85-8.46-3.85H710q-12.75 0-21.38-8.63-8.62-8.63-8.62-21.38 0-12.76 8.62-21.37Q697.25-780 710-780h77.69Q818-780 839-759q21 21 21 51.31V-630q0 12.75-8.63 21.38-8.63 8.62-21.38 8.62-12.76 0-21.37-8.62Q800-617.25 800-630Zm-700 0v-77.69Q100-738 121-759q21-21 51.31-21H250q12.75 0 21.38 8.63 8.62 8.63 8.62 21.38 0 12.76-8.62 21.37Q262.75-720 250-720h-77.69q-4.62 0-8.46 3.85-3.85 3.84-3.85 8.46V-630q0 12.75-8.63 21.38-8.63 8.62-21.38 8.62-12.76 0-21.37-8.62Q100-617.25 100-630Zm687.69 450H710q-12.75 0-21.38-8.63-8.62-8.63-8.62-21.38 0-12.76 8.62-21.37Q697.25-240 710-240h77.69q4.62 0 8.46-3.85 3.85-3.84 3.85-8.46V-330q0-12.75 8.63-21.38 8.63-8.62 21.38-8.62 12.76 0 21.37 8.62Q860-342.75 860-330v77.69Q860-222 839-201q-21 21-51.31 21Zm-615.38 0Q142-180 121-201q-21-21-21-51.31V-330q0-12.75 8.63-21.38 8.63-8.62 21.38-8.62 12.76 0 21.37 8.62Q160-342.75 160-330v77.69q0 4.62 3.85 8.46 3.84 3.85 8.46 3.85H250q12.75 0 21.38 8.63 8.62 8.63 8.62 21.38 0 12.76-8.62 21.37Q262.75-180 250-180h-77.69Zm84.61-229.23v-141.54q0-29.83 21.24-51.07 21.24-21.24 51.07-21.24h301.54q29.83 0 51.07 21.24 21.24 21.24 21.24 51.07v141.54q0 29.83-21.24 51.07-21.24 21.24-51.07 21.24H329.23q-29.83 0-51.07-21.24-21.24-21.24-21.24-51.07Z"/></svg>
